X:26
T:T017- The Rakes of Cashell
S:Brysson's Curious Collection (1791)
Q:1/4=120
L:1/8
M:6/8
K:A mixolydian
{e/}d2B BdB|d2ba2f|{e/}d2B BdB|dgd ecA::d3.e3|\
fdb .a2f|dfd fgf|faf ecA::d2b bdb|bdb .a2f|\
d2b bdb|faf ecA:|]

